X: 14649
T: Gan Ainm
R: hornpipe
M: 4/4
K: Gmajor
GA|:B2Bc BAGF|EB,EF GFGA|B2 (3GBd edBG|ABGE D2GA|
B2Bc BAGF|EB,EF GFGA|Bgfe dBcA|1 B2G2 G2GA||2 B2G2 G2DC:|
|:B,G,B,D ECEG|FDEF GFGA|B2 (3GAB cBcB|AFGE D2DC|
B,G,B,D ECEG|FDEF GFGA|Bgfe dBcA|1 B2G2 G2DC||2 B2G2 G2GA:|

